X:277
T: KOMM HERAUS DU TRAURIGE BRAUT
N: E0870
O: Europa, Mitteleuropa, Deutschland, Hessen, Kreis Limburg, Heringen
R: Hochzeits -, Ehestands - Lied
M: 4/4
L: 1/8
K: G
Gd | d2d2e2e2 | dedcB2
Gd | d2d2e2e2 | dedcB2
d2 | A6B2 | G4
A4 | BdeBd2Ac | B4z2

@@@ Tune index: 4590
